rospo-light/16x16/actions/format-text-capitalize.svg

<svg height="16" viewBox="0 0 16 16" width="16" xmlns="http://www.w3.org/2000/svg"><path d="m4.5 2-2.5 3h5zm4.5 3v9h1v-.769531a3 3 0 0 0 2 .769531 3 3 0 0 0 3-3 3 3 0 0 0 -3-3 3 3 0 0 0 -2 .7675781v-3.7675781zm-5.1132812 1-2.8867188 8h1.1660156l.9941406-2.285156h2.7792969l.8945313 2.285156h1.1660156l-2.6445312-8zm .734375 1.2402344 1.09375 3.3320316h-2.3027344zm7.3789062 1.7597656a2 2 0 0 1 2 2 2 2 0 0 1 -2 2 2 2 0 0 1 -2-2 2 2 0 0 1 2-2z" fill="#5c616c"/></svg>

<?xml version="1.0" encoding="UTF-8" standalone="no"?>
<svg xmlns="http://www.w3.org/2000/svg" width="22" height="22" viewBox="0 0 22 22">
 <defs>
  <style type="text/css" id="current-color-scheme">
   .ColorScheme-Text { color:#5c616c; } .ColorScheme-Highlight { color:#5294e2; }
  </style>
 </defs>
 <path style="fill:currentColor;opacity:1" class="ColorScheme-Text" transform="translate(3 3)" d="M 4.5 2 L 2 5 L 7 5 L 4.5 2 z M 9 5 L 9 14 L 10 14 L 10 13.230469 A 3 3 0 0 0 12 14 A 3 3 0 0 0 15 11 A 3 3 0 0 0 12 8 A 3 3 0 0 0 10 8.7675781 L 10 5 L 9 5 z M 3.8867188 6 L 1 14 L 2.1660156 14 L 3.1601562 11.714844 L 5.9394531 11.714844 L 6.8339844 14 L 8 14 L 5.3554688 6 L 3.8867188 6 z M 4.6210938 7.2402344 L 5.7148438 10.572266 L 3.4121094 10.572266 L 4.6210938 7.2402344 z M 12 9 A 2 2 0 0 1 14 11 A 2 2 0 0 1 12 13 A 2 2 0 0 1 10 11 A 2 2 0 0 1 12 9 z"/>
</svg>
